svg/floor-lamp.svg

<?xml version="1.0" encoding="UTF-8"?>
<!DOCTYPE svg PUBLIC "-//W3C//DTD SVG 1.1//EN" "http://www.w3.org/Graphics/SVG/1.1/DTD/svg11.dtd">
<svg xmlns="http://www.w3.org/2000/svg" xmlns:xlink="http://www.w3.org/1999/xlink" version="1.1"  width="24" height="24" viewBox="0 0 24 24">
    <path fill="#000000" d="M 7.5 2 L 10 9 L 14 9 L 16.5 2 L 7.5 2 z M 11.289062 10 L 6.9199219 22 L 7.984375 22 L 11.5 12.34375 L 11.5 22 L 12.5 22 L 12.5 12.349609 L 16.011719 22 L 17.076172 22 L 12.708984 10 L 11.289062 10 z " />
</svg>

<?xml version="1.0" encoding="UTF-8"?>
<!DOCTYPE svg PUBLIC "-//W3C//DTD SVG 1.1//EN" "http://www.w3.org/Graphics/SVG/1.1/DTD/svg11.dtd">
<svg xmlns="http://www.w3.org/2000/svg" xmlns:xlink="http://www.w3.org/1999/xlink" version="1.1"  width="24" height="24" viewBox="0 0 24 24">
<path d="m7.5 2l2.5 7h4l2.5-7h-9zm3.7891 8l-4.3691 12h1.0645l3.5156-9.6562v9.6562h1v-9.6504l3.5117 9.6504h1.0645l-4.3672-12h-1.4199z"/>
</svg>
